X:1
T:Aria variata
T:A r i a  v a r i a t a
T:alla maniera italiana. A-moll. 
T:Johann Sebastian Bach (1685-1750)
T:BWV 989
C:Johann Sebastian Bach (1685-1750)
Z:BWV 989
%%score ( 1 2 3 ) ( 4 5 6 7 ) { ( 8 9 13 ) | ( 10 11 12 14 ) }
L:1/8
Q:1/4=52
M:4/4
K:C
V:1 treble nm="Cembalo"
V:2 treble 
V:3 treble 
V:4 bass nm="Cembalo"
V:5 bass 
V:6 bass 
V:7 bass 
V:8 treble nm="Cembalo"
V:9 treble 
V:13 treble 
V:10 bass 
V:11 bass 
V:12 bass 
V:14 bass 
V:1
 MA ^G{G} MA B PG2{^F} E2 | A2{A} B2{cd} c B/ A/ z2 | M^f2 f/4 g/4 a f/4 e/4 P^d B{d} e E | %3
 P^F3 E[Q:1/4=52] (2:3:2E/8[Q:1/4=51]"^.9" ^D/8[Q:1/4=51]"^.7" E/8-[Q:1/4=51]"^.5" E/-[Q:1/4=50]"^.5" E-[Q:1/4=47] E2[Q:1/4=48]"^.9" :: %4
[Q:1/4=52] c B c =d PB A/ G/ G2 | e ^d e ^f Pd ^c/ B/ B2 | P=d ^c d e{d} ^c2 d =F | %7
 E3 D (2:3:2D/8 ^C/8 D/8- D/- D- D2 | M=f g{g} a d P^c =B{B} A2 | M=c d{d} e A ^G ^F E2 | %10
 d/4 e/4 =f/- =f Pd B{A} P^G E{G} A2- | %11
 A3/2 B/4 c/4[Q:1/4=52] P^G3/2[Q:1/4=51]"^.1" A/[Q:1/4=50]"^.5" A4[Q:1/4=48][Q:1/4=48][Q:1/4=47] :| %12
[M:4/4]"^Var. I. (Largo.)""^I 4' I 8'"[Q:1/4=56] MA c/ e/ Pc A/ c/ P^G B/ e/ PG E/ G/ | %13
 MA2 PB2 Mc e/ c/ A c'/ a/ | P^f2 f/4 g/4 a/- a P^d f/ B/ e E/ G/ | %15
 A/4 B/4 c/ A/ ^F/ P^D3/2 E/ ME4 :: Mc e/ =g/ Pe c/ e/ B =d/ g/ MG2 | %17
 Me g/ b/ Pg e/ g/ ^d ^f/ b/"^(    )" MB2 | P=d =f/ e/ d f/ e/ d f/ e/ d f/ _e/ | %19
 Pd/ ^c/ d/ F/ P=E3/2 D/ MD4 | z f/ g/ a Pf/ d/ P^c d/ e/ A2 | z =c/ d/{d} e Pc/ A/ P^G A/ B/ E2 | %22
{e} Mf d/ f/ PB d/ B/ P^G B/ E/ A C/ A,/ | B,/ B/ Mc/ d/ P^G3/2 A/ MA4 :| %24
[M:4/4]"^Var. II."[Q:1/4=92] A (3(c/ d/ e/) (3(c/ d/ e/) (3(c/ d/ e/) ^G (3(B/ c/ d/) (3(B/ c/ d/) (3(B/ c/ d/) | %25
 c (3(B/ c/ d/) c3/2 B/ (3(c/ d/ e/) (3(c/ d/ e/) A2 | %26
 ^f (3(a/ =g/ g/) (3(a/ g/ f/) (3(a/ g/ f/) ^d (3(f/ e/ d/) e (3(G/ ^F/ E/) | %27
 ^F (3(A/ G/ F/)"^(    )" TG3/2 F/4 E/4 E (3(^G/ ^F/ E/) E2 :: %28
 c (3(e/ =f/ =g/) (3(e/ f/ g/) (3(e/ f/ g/) B (3(g/ a/ b/) (3(g/ a/ b/) (3(g/ a/ b/) | %29
 B (3(G/ ^F/ E/) (3(G/ F/ E/) (3(G/ F/ E/) ^D (3(^F/ G/ A/) (3(D/ E/ F/) B, | %30
 (=d/ =F/) (F/ d/) (d/ F/) (F/ d/) (d/ F/) (F/ d/) (d/ F/) (F/ d/) | %31
 (d/ F/) (F/ E/)"^(    )" TE3/2 D/ D (3(F/ G/ A/) D2 | %32
 (a/ f/) (f/ a/) (a/ d/) (d/ a/) (a/ ^c/) (c/ e/) A2 | %33
 (e/ =c/) (c/ e/) (e/ A/) (A/ e/) (e/ ^G/) (G/ B/) E2 | %34
 (3(f/ e/ d/) (3(f/ e/ d/) (3(d/ c/ B/) (3(d/ c/ B/) (3(B/ A/ ^G/) (3(G/ ^F/ E/) A (3(c/ B/ A/) | %35
 (A/ ^G/) (A/ C/)"^(    )" TB,3/2 A,/ A, (3(^C/ B,/ A,/) A,2 :| %36
[M:4/4]"^Var. III."[Q:1/4=87]"^I 8'" c d e A ^G/ A/ G/ A/ B/ E/ ^F/ ^G/ | %37
 A/ B/ ^G/ A/ B/ c/ A/ B/ (3(c/ d/ c/) (3(B/ c/ B/) A2 | %38
 ^f/ =g/ a/ g/ f/ e/ f/ e/ ^d/ e/ ^c/ d/ e/ =d/ =c/ B/ |1 %39
 A/ G/ ^F/ G/"^(    )" TF3/2 E/ E2 z/ ^G/ A/ B/ :|2 A/ G/ ^F/ G/"^(    )" TF3/2 E/ E4 |: %41
 e =f g c B/ A/ B/ A/ G/ d/ e/ ^f/ | g a b e ^d/ ^c/ d/ c/ B z | %43
 (3(=d/ ^c/ d/) (3(d/ c/ d/) (3(d/ c/ d/) (3(d/ c/ d/) (3(d/ c/ d/) (3(d/ c/ d/) (3(d/ c/ d/) (3(d/ c/ d/) | %44
 d/ ^c/ d/ e/ Tc3/2 d/ | d2 z/ ^c/ d/ e/ | =f g a d ^c/ B/ c/ B/ A TB | %47
 =c d e A ^G/ ^F/ G/ F/ E z | (=f/ e/) (d/ c/) (d/ c/) (B/ A/) (^G/ ^F/) (E/ D/) C A- |1 %49
 A/ ^G/ A/ B/"^(    )" TG3/2 A/ A2 z/ B/ c/ d/ :|2 %50
 (A/ ^G/) A/ B/"^(    )" TG3/2 A/[Q:1/4=87] A4[Q:1/4=86]"^.5"[Q:1/4=85]"^.5"[Q:1/4=83]"^.9"[Q:1/4=82][Q:1/4=79]"^.7"[Q:1/4=77] |] %51
[M:4/4]"^Var. IV. (Allegro.)"[Q:1/4=87] z/ MA ^G/ A/ B/ c/ d/ B/ e ^d/ e/ =f/ e/ =d/ | %52
 c/ a/ c/ a/ B/ a/ ^g/ d/ c/ e/ ^G/ B/ A2 | z/ Me ^d/ e/ A/ B/ c/ B/ b a/- a/ ^f/ b/ a/ | %54
 =g/ B/ e/ g/ ^f/ e/ ^d/ A/ ^G/ B/ G/ ^D/ E2 :: z2 z/ g ^f/ g2 z2 | %56
 g/ Me ^d/ e2- e/ e/ ^d/ ^c/ d/ ^f/ ^g/ =a/ | %57
 b/ =d/ d/ b/ a/ =c/ c/ a/ =g/ _B/ B/ g/ =f/ A/ A/ f/ | %58
 e/ G/ G/ e/ F/ d/ E/ ^c/ d/ A/ F/ D/ A,/ F,/ D,/ A,,/ | z2 z/ a ^g/ a2 z2 | %60
 c/ A ^G/ A2- A/ A/ ^G/ ^F/ B2 | =d4- d/ B/ c/ d/ e2- | %62
 e/ =f/ d/ e/ c/ d/ B/[Q:1/4=87] d/-[Q:1/4=86]"^.6" d/[Q:1/4=85]"^.8" e/[Q:1/4=84]"^.7" c-[Q:1/4=83][Q:1/4=81]"^.4" c2[Q:1/4=79][Q:1/4=77] :| %63
[M:4/4]"^Var. V. (Un poco Allegro.)"[Q:1/4=92]"^I 4' Lute II 8'" A/ B/ c/ d/ e/ ^f/ ^g/ a/"^(    )" Pg3/2 ^f/ e/ =f/ e/ d/ | %64
 c/ e/ f/ e/ d/ c/ B/ d/"^(    )" Pc3/2 B/ A2 | %65
 ^f/ =g/ a/ g/ f/ g/ a/ g/ f/ g/ a/ ^d/ e/ f/ g/ B/ |1 c/ e/ ^f/ e/ ^d2 e4 :|2 %67
 c/ e/ ^f/ e/ ^d2 e4 |: c/ =d/ e/ =f/ =g/ a/ b/ c'/"^(    )" Pb3/2 a/ g/ a/ g/ ^f/ | %69
 e/ c/ B/ A/ G/ ^F/ E/ F/"^(    )" P^D3/2 ^C/ B, z | %70
 =d/ ^c/ d/ =D/ d/ c/ d/ D/ d/ c/ d/ D/ d/ c/ d/ D/ | z/ _B/ A/ G/ =F/ E/ D/ E/ F/ D/ F/ A/ d2 | %72
 f/ g/ a/ g/ f/ e/ d/ e/ | ^c/ d/ c/ =B/ A z | =c/ d/ e/ d/ c/ B/ A/ B/ ^G/ A/ G/ ^F/ E z | %75
 (=f/ d/) (d/ B/) (B/ ^G/) (G/ E/) (E/ B,/) (B,/ ^G,/) A,/ A/ ^G/ A/ | %76
 C/ A/ ^G/ A/ E/ ^G/ ^F/ G/[Q:1/4=92] MA4[Q:1/4=90]"^.1"[Q:1/4=85]"^.9"[Q:1/4=79]"^.8"[Q:1/4=72] :| %77
[M:4/4]"^Var. VI. (Andante.)"[Q:1/4=72] A3/2 ^G/ A B ^G3/2 A/ B E | %78
"^(    )" Me f/ e/"^(    )" Md c/ B/ c B/ c/ A2 | ^f3/2 =g/ a f ^d3/2 e/ f B | %80
"^(    )" Me ^d/ e/"^(    )" MB A/ B/ ^G ^F/ G/ E2 :: %81
"^(    )" M=c3/2 B/"^(    )" Mc3/2 =d/"^(    )" PB3/2 c/4 d/4 =G2 | %82
"^(    )" Me3/2 ^d/"^(    )" Me3/2 ^f/"^(    )" P^d3/2 e/4 f/4 B2 | %83
 =d/ e/ =f/ ^c/ d/ e/ f/ c/ d/ e/ f/ c/ d/ e/ f/ c/ | d/ =c/ _B/ A/ G/ F/ E/ F/ D4 | %85
"^(    )" Mf3/2 g/ a- a/4 f/4 e/4 d/4"^(    )" P^c3/2 d/4 e/4 A2 | %86
"^(    )" M=c3/2 d/ e- e/4 c/4 B/4 A/4"^(    )" P^G3/2 A/4 B/4 E2 | %87
"^(    )" M=f3/2 e/ d/ c/ d/ c/ B3/2 A/ ^G/ ^F/ G/ E/ | %88
"^(    )" MA3/2 B/ P^G3/2 A/"^(    )"[Q:1/4=72] MA4[Q:1/4=71][Q:1/4=70][Q:1/4=68][Q:1/4=67][Q:1/4=64][Q:1/4=62] :| %89
[M:12/8]"^Var. VII. (Allegro.)"[Q:3/8=108]"^I 4' I 8'" Me2 d Pc B A ^G A B E3 | %90
 A B c d c B c B c A3 | ^f c' b a b =g ^d a g ^f g e | b a g P^f e ^d e6 :: %93
 =g2 =f e =d c B c d G3 | b2 a g ^f e ^d e f B3 | (=d =F d) (d F d) (d F d) (d F d) | %96
 (d F d) E d ^c d A F D3 | z a g f e d ^c d e A3 | z e d =c B A ^G A B E3 | %99
 =f e d ^f b a =g ^f e ^g c' b | %100
 a ^g a c d B[Q:3/8=108] A[Q:3/8=106]"^.7" ^c[Q:3/8=103]"^.8" e"^(     )"[Q:3/8=99]"^.7" !fermata!a3[Q:3/8=94]"^.3"[Q:3/8=88] :| %101
[M:4/4]"^Var. VIII. (Allegro.)"[Q:1/4=98] z/ c/ e/ c/ A z z/ B/ e/ B/ E z | %102
 z/ A/ c/ e/ d/ c/ B/ d/ c/ e/ a/ e/ A z | %103
 z/ a/ c'/ a/ ^f/ a/ f/ a/ M[!courtesy!x^d]3/2 d/ Td3/2 d/ |1 %104
 e/ ^f/ =g/ e/ f/ e/ ^d/ f/ e/ ^g/ b/ g/ e2 :|2 e/ ^f/ =g/ e/ f/ e/ ^d/ f/ e/ ^g/ b/ g/ e2 |: %106
 z/ e/ =g/ e/ c z z/ B/ =d/ B/ G z | z/ g/ b/ g/ e z z/ ^d/ ^f/ d/ B z | %108
 =d/ =f/ d/ =F/ d/ f/ d/ F/ | d/ f/ d/ F/ d/ f/ d/ F/ | %110
 z/ A/ d/ e/"^(    )" P^c3/2 c/ d/ f/ a/ f/ d z | z/ f/ a/ f/ d/ f/ A/ d/ ^c/ e/ a/ e/ A z | %112
 z/ =c/ e/ c/ A/ c/ E/ A/ ^G/ B/ e/ B/ E z | %113
 f/ a/4 f/4 d/ f/4 d/4 B/ d/4 B/4 ^G/ B/4 G/4 A/ e/4 c/4 A/ c/4 A/4 E/ A/4 E/4 C/ E/4 C/4 |1 %114
 A,3/2 A/ ^G/ B/ e/ B/ ^c/ e/ a/ e/ A z :|2 %115
 A,3/2 A/ ^G/ B/ e/ B/[Q:1/4=98] ^c/[Q:1/4=96]"^.6" e/[Q:1/4=93]"^.4" a/[Q:1/4=88]"^.8" e/[Q:1/4=83] A"^(      )"[Q:1/4=68] !fermata!z[Q:1/4=76] |] %116
[M:4/4]"^Var. IX."[Q:1/4=108]"^II 8'" e/ B/ c/ e/ ^G/ B/ A/ c/ B/ ^F/ ^G/ B/ ^D/ F/ E/ G/ | %117
 A/ E/ A/ c/ B/ E/ B/ =d/ c/ =f/ e/ B/ c/ e/ A | %118
"^I 4' I 8'" c'/ b/ a/ =g/ ^f/ b/ a/ g/ f/ e/ ^d/ g/ f/ e/ d/ ^c/ | %119
 B/ e/ ^d/ ^c/ B/ A/ ^G/ ^F/[Q:1/4=108] G/[Q:1/4=107]"^.1" ^c/[Q:1/4=104]"^.9" B/[Q:1/4=101]"^.9" A/[Q:1/4=98] ^G/[Q:1/4=93]"^.4" ^F/[Q:1/4=88] E :: %120
"^II 8'"[Q:1/4=108] =C/ =D/ E/ =F/ =G/ A,/ B,/ C/ D/ ^F/ G/ A/ B/ B,/ ^C/ ^D/ | %121
 E/ ^F/ G/ A/ B/ ^C/ ^D/ E/ ^F/ G/ F/ E/ ^D/ ^C/ B, | %122
"^I 4' I 8'" =f/ e/ =d/ ^c/ d/ e/ f/ e/ d/ ^c/ d/ e/ f/ e/ d/ c/ | %123
 d/ e/ f/ g/ a/ A/ B/ ^c/ d/ F/ G/ A/ D z | %124
"^II 8'" z/ _b/ a/ b/ a/ g/ f/ g/ f/ e/ d/ e/ ^c/ d/ c/ =B/ | %125
 A/ f/ e/ f/ e/ d/ =c/ d/ c/ B/ A/ B/ ^G/ ^F/ E | %126
 d/ e/ =f/ e/ d/ e/ c/ d/ B/ c/ d/ c/ B/ c/ A/ B/ |1 %127
 ^G/ e/ A/ c/ B/ ^F/ ^G/ d/[Q:1/4=108] ^c/[Q:1/4=107]"^.1" B/[Q:1/4=104]"^.9" c/[Q:1/4=101]"^.9" ^G/[Q:1/4=98] A/[Q:1/4=98]"^.9" z/[Q:1/4=101]"^.1" z[Q:1/4=104]"^.1" :|2 %128
[Q:1/4=108] ^G/ e/ A/ c/ B/ ^F/ ^G/ d/ ^c/[Q:1/4=108] e/[Q:1/4=104]"^.5" =f/[Q:1/4=102]"^.1" d/[Q:1/4=100] e/[Q:1/4=98] B/[Q:1/4=96]"^.2" c/[Q:1/4=94]"^.4" ^G/ | %129
[Q:1/4=92]"^.7" A/[Q:1/4=79]"^.3" z/[Q:1/4=70]"^.1" z[Q:1/4=62] |] %130
[M:4/4]"^Var. X."[Q:1/4=52]"^(    )""^I 4' 8' II 8'" MA B"^(    )" Mc d e4- | e f e d c B A2 | %132
 ^f =g a f ^d e f B |"^(    )" Me ^f f2[Q:1/4=52] e4[Q:1/4=50][Q:1/4=47] :: %134
"^(    )"[Q:1/4=52] Mc =d e =f =g2 B2 | e ^f g a b2 ^d2 | =d ^c d e ^c A d2- | %137
 d/ ^c/ d/ e/ e3/2 d/ d4 | f g a d"^(    )" P^c3/2 =B/ A2 | =c d e A"^(    )" P^G3/2 ^F/ E2 | %140
"^(    )" M_B c d B ^G E A2- | %141
 A/ =B/ c/4 B/4[Q:1/4=52] A/[Q:1/4=51]"^.4" P^G3/2[Q:1/4=45]"^.2" A/[Q:1/4=42] A4[Q:1/4=47]"^.8" :| %142
V:2
 E2 E2 E2 B,2 | E2 D2 C2 x2 | A4 ^F2 E2- | E2 ^D2 E2 B,2 :: E =D E =F D4 | G ^F G A F4 | %6
 E4 E2 D2- | D2 P^C2 D2 A,2 | D2 E2 A2 E2 | E3 D E2 B,2 | D4 E2 z C | %11
 B, C D2- D"^.9" P^C/ B,/{B,} C2 :|[M:4/4] x8 | x8 | x8 | x8 :: x8 | x8 | x8 | x8 | x8 | x8 | x8 | %23
 x8 :|[M:4/4] x8 | x8 | x8 | x8 :: x8 | x8 | x8 | x8 | x8 | x8 | x8 | x8 :|[M:4/4] x8 | x8 | x8 |1 %39
 x8 :|2 x8 |: x8 | x8 | x8 | x4 | x4 | x8 | x8 | x8 |1 x8 :|2 x8 |][M:4/4] x8 | x8 | x8 | x8 :: %55
 z/ Mc B/ c2- c/ c/ B/ A/ B/ =d/ e/ ^f/ | z2 z/ B ^A/ B2 z2 | x8 | x8 | %59
 z/ Md ^c/ d2- d/ d/ =c/ B/ e/ B/ c/ d/ | z2 z/ E ^D/ E2 z/ E/ ^F/ ^G/ | %61
 z/ A/ B/ c/ B/ d/ ^F/ A/ ^G2- G/ G/ A/ B/ | c B A B- B3/2"^.2" ^G/ A2 :|[M:4/4] x8 | x8 | x8 |1 %66
 x2 z/ A/ B/ A/ ^G/ B/ A/ B/ E2 :|2 x2 z/ A/ B/ A/ ^G/ B/ A/ B/ E2 |: x8 | x8 | x8 | x8 | x4 | x4 | %74
 x8 | x8 | x8 :|[M:4/4] x8 | x8 | x8 | x8 :: x8 | x8 | x8 | x8 | x8 | x8 | x8 | %88
 x4 z/"^.5" E/"^.5" =F/"^.9" D/ E/"^.7" B,/"^(      )" !fermata!^C :|[M:12/8] x12 | x12 | x12 | %92
 x12 :: x12 | x12 | x12 | x12 | x12 | x12 | x12 | x12 :|[M:4/4] x8 | x8 | x8 |1 x8 :|2 x8 |: x8 | %107
 x8 | x4 | x4 | x8 | x8 | x8 | x8 |1 x8 :|2 x8 |][M:4/4] x8 | x8 | x8 | x8 :: x8 | x8 | x8 | x8 | %124
 x8 | x8 | x8 |1 x8 :|2 x8 | x2 |][M:4/4] E2 A2- A A ^G2 | A3 ^G A2 E2 | A3 c B4- | %133
 B c B A- A"^.5" A ^G2 :: =G4- G4 | B4- B4 | _B4 A2 =B2 | A3 G- G G ^F2 | A3 G E4 | E3 D B,4 | %140
 =F4 E2 ^F2 | E4 E4 :| %142
V:3
 x8 | x8 | x8 | x8 :: x8 | x8 | x2 ^G2 A2 x2 | x8 | A3 G x4 | x8 | x8 | x8 :|[M:4/4] x8 | x8 | x8 | %15
 x8 :: x8 | x8 | x8 | x8 | x8 | x8 | x8 | x8 :|[M:4/4] x8 | x8 | x8 | x8 :: x8 | x8 | x8 | x8 | %32
 x8 | x8 | x8 | x8 :|[M:4/4] x8 | x8 | x8 |1 x8 :|2 x8 |: x8 | x8 | x8 | x4 | x4 | x8 | x8 | x8 |1 %49
 x8 :|2 x8 |][M:4/4] x8 | x8 | x8 | x8 :: x8 | x8 | x8 | x8 | x2 z =B A2 x2 | x2 z ^F E2 x2 | x8 | %62
 x6 z/"^.3" E3/2 :|[M:4/4] x8 | x8 | x8 |1 x8 :|2 x8 |: x8 | x8 | x8 | x8 | x4 | x4 | x8 | x8 | %76
 x8 :|[M:4/4] x8 | x8 | x8 | x8 :: x8 | x8 | x8 | x8 | x8 | x8 | x8 | x8 :|[M:12/8] x12 | x12 | %91
 x12 | x12 :: x12 | x12 | x12 | x12 | x12 | x12 | x12 | x12 :|[M:4/4] x8 | x8 | x8 |1 x8 :|2 x8 |: %106
 x8 | x8 | x4 | x4 | x8 | x8 | x8 | x8 |1 x8 :|2 x8 |][M:4/4] x8 | x8 | x8 | x8 :: x8 | x8 | x8 | %123
 x8 | x8 | x8 | x8 |1 x8 :|2 x8 | x2 |][M:4/4] x8 | x8 | x8 | x8 :: x8 | x8 | x8 | x8 | x8 | x8 | %140
 x8 | x8 :| %142
V:4
 C B, C D B,2 ^G,2 | A,2 E,2 A,2 !arpeggio!!fermata![A,C-E-A-] [B,CEA] | ^D2 E2 B,4 | %3
 B,2 ^F, ^G,/ A,/- A, PG,/ F,/ G,2 :: =G,4- G, A, B,2 | B,4 B, ^C ^D2 | B,4 A,4 | %7
 _B, A,/ G,/ A, E,/ G,/- G, ^F,/ E,/ F,2 | A,3 D E D ^C2 | A,2 =B, D B, A, ^G,2 | B,6 ^F,2 | %11
 B,4 A,4 :|[M:4/4]"^II 8'" A,2 A,,2 E,2 E,,2 | A, C/ E/ ^G, E,/ G,/ A,2 A,, A, | %14
 C A,/ C/ ^F, A,/ F,/ B, A, =G, C | A, ^F, B, B,, E, ^G,/ B,/ PG, E, :: C,2 C,,2 =G,,2 G, B,/ G,/ | %17
 E,2 E,,2 B,,2 B, ^D/ B,/ | ^G,2 A,2 _B,2 =F,2 | =G, ^G, A, A,, D, F,/ D,/ D,,2 | %20
 D, E, F, G, A,2 z E, | A, B, C D E2 E, F,/ E,/ | D,2 z2 D,2 z ^F, | %23
 E, =D, E, E,, A,, ^C,/ E,/ C,/ A,,/ A,,, :|[M:4/4] A,, B,, C, D, E, ^F, ^G, E, | %25
 A, D, E, E,, A, ^G, A, B, | C B, A, ^F, B,3 B, | A, ^F, B, B,, E, B,, E,,2 :: %28
 C, D, E, C, G, D, G,, ^F, | E, ^F, G, E, B, ^F, B,, A, | ^G, z A, z _B, z A, z | %31
 ^G, z A, A,, D, ^C, D, E, | F, E, F, G, A, ^G, A, B, | =C B, C D E ^D E E, | %34
 =D, z D, z D, z ^D, z | E, =D, E, E,, A,, E,, A,,,2 :| %36
[M:4/4] A,/ ^G,/ A,/ B,/ C/ B,/ C/ D/ E B, E, D | C B,/ A,/ ^G, E, A, E, A,, A,/ B,/ | %38
 C B, C A, B, A, =G, E, |1 C A, B, B,, E,/ ^D,/ E,/ ^F,/ G,/ E,/ F,/ G,/ :|2 %40
 C A, B, B,, E,/ ^D,/ ^C,/ D,/ E, E,, |: =C,/ B,,/ C,/ =D,/ E,/ D,/ E,/ =F,/ G, D, G,, ^F, | %42
 E,/ ^D,/ E,/ ^F,/ G,/ F,/ G,/ A,/ B, F, B,, (3(A,/ B,/ A,/) | ^G, ^G,, A, A,, _B, _B,, =F, =F,, | %44
 =G, ^G, A, A,, | D,/ ^C,/ D,/ E,/ F, E, | %46
 D,/ ^C,/ D,/ E,/ F,/ E,/ F,/ G,/ A, E, A,,/ E,/ ^F,/ ^G,/ | %47
 A,/ ^G,/ A,/ B,/ =C/ B,/ C/ D/ E B, E, (3(E,/ =F,/ E,/) | D, z D, z D, z ^D,/ E,/ ^C,/ D,/ |1 %49
 E, ^D, E, E,, A,,/ E,/ ^F,/ ^G,/ A,/ G,/ A,/ B,/ :|2 %50
 E, ^D, E, E,, A,,/ E,/ ^C,/ ^G,,/ A,,/ E,,/ A,,, |][M:4/4] A, B, C A,- A,/ ^G,/ ^F, G, E, | %52
 A, =F, D, E, A,,2- A,,/ ^G,/ A,/ B,/ | C B, C A, ^D, ^C ^D B, | E =C A, B, E, B,, E,,2 :: %55
 C, =D, E, A,,/ D,/ G,, D, G, ^F, | E, ^F, G, ^C,/ F,/ B,, F, B, =A, | %57
 ^G,/ E/ E/ G,/ A,/ =F/ F/ A,/ _B,/ G/ G/ B,/ =F,/ D/ D/ F,/ | G,/ _B,/ E/ G,/ A, A,, D,2 x2 | %59
 z2 z E,- E,2 z2 | z2 z B,- B,2 z2 | z4 z2 z ^G, | A,3 ^G, A, z z A, :| %63
[M:4/4]"^I 4' Lute II 8'" A,, A, G, F, E, ^F, ^G, E, | A, C, D, E, A,, z/ E,/ A,/ B,/ C/ B,/ | %65
 A, A,, B, B,, C C, =G, =G,, |1 A, A,, B, B,, E, E,,- E,,/ E,/ =D,/ E,/ :|2 %67
 A, A,, B, B,, E,2- E,/ B,,/ E,, |: C, D, E, C, G, ^F, G, G,, | %69
 E, ^F, G, A, B, ^C, ^D,/ C,/ B,,/ D,/ | ^G,, z/ E,/ A,, z/ =F,/ _B,, z/ =G,/ =F,, z/ D,/ | %71
 G,, G, A, A,, D, E, F,/ G,/ F,/ E,/ | D, E, F, G, | A, E, A,,/ =B,/ A,/ ^G,/ | %74
 A, B, =C D E B, E,/ =G,/ =F,/ E,/ | D, E, =F, D, D, E, F, ^D, | %76
 E, ^D, E, E,, z/ A,,/ ^C,/ E,/- A,2 :|[M:4/4] A, B, C D E, ^F, ^G, A, | z A,2 ^G, A, E, A, B, | %79
 C B, C A, B, ^C ^D E | =G, A, B, B,, E, B,, E,,2 :: =C, =D, E, =F, =G, A, B, G, | %82
 E, ^F, G, A, B, ^C ^D B, | ^G,/ E/ G,/ E/ A,/ F/ A,/ F/ _B,/ =G/ B,/ G/ =F,/ D/ F,/ D/ | %84
 z _B, D ^C D/ =C/ _B,/ A,/ G,/ F,/ E,/ F,/ | D, E, F, G, A, =B, ^C A, | %86
 A,, B,, =C, D, E, ^F, ^G, E, | D, D,, z2 D, D,, z2 | C, D, E, E,, z2 z"_(      )" !fermata!A, :| %89
[M:12/8]"^I 4' I 8'" A,,2 B,, C,2 D, E,2 ^F, ^G, F, E, | z E, A, z A, ^G, A,2 B, C D B, | %91
 A,2 =G, ^F,2 E, F,2 E, ^D,2 E, | G,,2 A,, B,,3 E, ^G, B, PG,2 E, :: %93
 C,2 D, E,2 =F, =G,2 A, PB, A, G, | E,2 ^F, G,2 A, B,2 ^C ^D C B, | ^G, z z A, z z _B, z z A, z z | %96
 ^G, z z A,2 A,, D,3- D, F, A, | D2 E F2 =G, A,2 =B, ^C B, A, | %98
 A,,2 B,, =C,2 D,, E,,2 ^F,, ^G,, F,, E,, | D,,2 z D,2 z E,,2 z E,2 z | %100
 =F,2 ^D, E,2 E,,"_(     )" z2 z z E,"^(     )" !fermata!A, :| %101
[M:4/4] A, z z/ A,/ C/ A,/ ^G, z z/ E,/ G,/ E,/ | A, E, ^F, ^G, A, z z/ A,/ C/ A,/ | %103
 ^F, z z/ F,/ A,/ F,/ B,/ ^D/ ^F/ D/ B,/ D/ ^F,/ A,/ |1 %104
 =G,3/2 =C/ A,/ ^F,/ B, E, z z/ E,/ ^G,/ E,/ :|2 =G,3/2 =C/ A,/ ^F,/ B, E, z z/ =F,/ E,/ =D,/ |: %106
 C, z z/ C/ E/ C/ G z z/ G,/ B,/ G,/ | E, z z/ E,,/ G,,/ E,,/ B,, z z/ B,/ ^D/ B,/ | %108
 ^G, z/ ^G,,/ A,, z/ A,/ | _B, z/ _B,,/ A,, z/ A,/ | %110
 D F,/ G,/ A,/ E,/ A,/ A,,/ D, z z/ F,/ A,/ F,/ | D, z F, D, A, z z/ E,/ A,/ E,/ | %112
 A,, z =C, A,, E, z z/ E,/ F,/ E,/ | D, z z D, C, z z A,, |1 %114
 F,/ E,/ D,/ F,/ E, E,, [A,,A,]2 z/ ^G,,/ A,,/ B,,/ :|2 %115
 F,/ E,/ D,/ F,/ E, E,, [A,,A,]2 A,/ E,/"^(      )" !fermata!A,, |] %116
[M:4/4]"^II 8'" A,/ ^G,/ A,/ C/ B,/ D/ C/ E/ ^G,/ B,/ E,/ G,/ ^F,/ A,/ G,/ B,/ | %117
 C,/ A,/ E,/ A,,/ ^G,/ ^F,/ G,/ E,/ A,/ B,/ C/ D/ E/ D/ C/ B,/ | %118
 A,"^I 4' I 8'" C/ B,/ A,/ =G,/ ^F,/ B,/ A,/ G,/ F,/ E,/ ^D,/ G,/ F,/ E,/ | %119
 ^D,/ ^C,/ B,,/ A,,/ ^G,,/ A,,/ B,, E,/ A,,/ ^G,,/ ^F,,/ E,,/ B,,/ E, :: %120
 =C,,"^II 8'" =C,/ =D,/ E,/ =F,/ =G,/ A,,/ B,,/ D,/ E,/ ^F,/ G,/ A,/ G,/ F,/ | %121
 E, E,/ ^F,/ G,/ A,/ B,/ ^C,/ ^D,/ E,/ D,/ ^C,/ B,, B,/ A,/ | %122
 ^G,[K:treble]"^I 4' I 8'" =F/ E/ =D/ ^C/ D/ E/ F/ E/ D/ ^C/ D/ E/ F/ E/ | %123
 D/ ^C/ D/ E/ F/ G/ F/ E/ D z[K:bass] z/ F,/ G,/ A,/ | %124
 D, z[K:treble] z/"^II 8'" _B/ A/ B/ A/ G/ F/ G/ E/ F/ E/ D/ | %125
 ^C/ =B,/ A,[K:bass] z/ F/ E/ F/ E/ D/ =C/ D/ B,/ A,/ ^G,/ A,/ | %126
 B, z z C D/ E/ =F/ E/ D/ E/ C/ D/ |1 %127
 B,/ ^G/ C/ A/ D/ A/ E/ G/ A/ ^G,/ A,/ E,/ A,,/ ^C,/ E,/ A,/ :|2 %128
 B,/ ^G/ C/ A/ D/ A/ E/ G/ A/ ^C/ D/ B,/ C/ ^G,/ A,/ E,/ | A,,/ ^C,/ E,/"^(      )" !fermata!A,/ |] %130
[M:4/4]"^I 4' 8' II 8'" C2 A,2 B,4 | C D C B, A, B, C B, | A,4 ^F,2 ^D2 | E2 ^D2 E2 B,2 :: %134
 E4- E2 D2 | G4- G2 ^F2 | G2 =F2 E2 F E | F D ^C2 D2 A,2 | D2 =C _B, A, =B, ^C2 | %139
 A,2 G, =F, E, ^F, ^G,2 | =F,2 _B,2 =B,2 C B, | C A, B, ^C/ D/ C4 :| %142
V:5
 A,2 A,,2 E,3 D, | C,2 ^G,,2 A,,2 x2 | C3 B,/ A,/ B, A, =G, A, | B,2 B,,2 E,2 E,,2 :: %4
 C,2 C,,2 G,3 ^F, | E,2 E,,2 B,3 A, | ^G,2 E,2 A, =G, =F, D, | G,, _B,, A,,2 D,2 D,,2 | %8
 D,2 =C, _B,, A,,4 | A,2 G, F, E,4 | D,6 ^D,2 | E,2 E,,2 A,,4 :|[M:4/4] x8 | x8 | x8 | x8 :: x8 | %17
 x8 | x8 | x8 | x6 A,,2 | x8 | x6 ^D,2 | x8 :|[M:4/4] x8 | x8 | x2 C A, B, A, =G, ^F, | x8 :: x8 | %29
 x8 | x8 | x8 | x8 | x8 | x8 | x8 :|[M:4/4] x8 | x8 | x8 |1 x8 :|2 x8 |: x8 | x8 | x8 | x4 | x4 | %46
 x8 | x8 | x8 |1 x8 :|2 x8 |][M:4/4] x8 | x8 | x8 | x8 :: x8 | x8 | x8 | x8 | %59
 D,, E,, F,, E,, A,, =B,, =C, E, | A,, B,, C, B,, E, ^F, ^G, E, | =F, E, D, B,, E, D, C, B,, | %62
 A,, D, E,2 A, E, A,,2 :|[M:4/4] x8 | x8 | x8 |1 x8 :|2 x8 |: x8 | x8 | x8 | x8 | x4 | x4 | x8 | %75
 x8 | x5 ^C,- [C,E,]2 :|[M:4/4] x8 | C,2 B,,2 A,,2 x2 | x8 | x8 :: x8 | x8 | x8 | =G,3 A, x4 | x8 | %86
 x8 | x8 | x4 A,,4 :|[M:12/8] x12 | C,3 B,,3 A,,3 x3 | x12 | x12 :: x12 | x12 | x12 | x12 | x12 | %98
 x12 | x12 | x6 !fermata!A,,6 :|[M:4/4] x8 | x8 | x8 |1 x8 :|2 x8 |: x8 | x8 | x4 | x4 | x8 | x8 | %112
 x8 | x8 |1 x8 :|2 x8 |][M:4/4] x8 | x8 | x8 | x6 E,,2 :: x8 | x8 | x[K:treble] x7 | %123
 x6[K:bass] x2 | x2[K:treble] x6 | x2[K:bass] x6 | D, x7 |1 x6 A,,2 :|2 x8 | A,,2 |] %130
[M:4/4] A,2 F,2 E,3 D, | C,2 E,2 A,,4 | C, B,, C, A,, B,,2 A,2 | G, A, B,2 E,2 E,,2 :: %134
 C2 C, D, E, =F, G,2 | E2 E, ^F, G, A, B,2 | G,4- G,2 ^G,2 | A,4 D,2 D,,2 | D, E, ^F, G, A,2 A,,2 | %139
 A,, B,, ^C, D, E,2 E,,2 | D,4- D,2 ^D,2 | E,2 E,,2 A,,4 :| %142
V:6
 x8 | x4 E,2 x2 | x8 | x8 :: x8 | x8 | x8 | x8 | x8 | x8 | x8 | x8 :|[M:4/4] x8 | x8 | x8 | x8 :: %16
 x8 | x8 | x8 | x8 | x8 | x8 | x8 | x8 :|[M:4/4] x8 | x8 | x8 | x8 :: x8 | x8 | x8 | x8 | x8 | x8 | %34
 x8 | x8 :|[M:4/4] x8 | x8 | x8 |1 x8 :|2 x8 |: x8 | x8 | x8 | x4 | x4 | x8 | x8 | x8 |1 x8 :|2 %50
 x8 |][M:4/4] x8 | x8 | x8 | x8 :: x8 | x8 | x8 | x8 | x8 | x8 | x8 | x8 :|[M:4/4] x8 | x8 | x8 |1 %66
 x8 :|2 x8 |: x8 | x8 | x8 | x8 | x4 | x4 | x8 | x8 | x9/2 A,,3/2- A,,2 :|[M:4/4] x8 | x8 | x8 | %80
 x8 :: x8 | x8 | x8 | x8 | x8 | x8 | x8 | x4 z2 E,2 :|[M:12/8] x12 | x12 | x12 | x12 :: x12 | x12 | %95
 x12 | x12 | x12 | x12 | x12 | x12 :|[M:4/4] x8 | x8 | x8 |1 x8 :|2 x8 |: x8 | x8 | x4 | x4 | x8 | %111
 x8 | x8 | x8 |1 x8 :|2 x8 |][M:4/4] x8 | x8 | x8 | x8 :: x8 | x8 | x[K:treble] x7 | %123
 x6[K:bass] x2 | x2[K:treble] x6 | x2[K:bass] x6 | x8 |1 x13/2 ^C,3/2 :|2 x8 | x/ ^C,3/2 |] %130
[M:4/4] x8 | x8 | x8 | x8 :: x8 | x8 | x8 | x8 | x8 | x8 | x8 | x8 :| %142
V:7
 x8 | x8 | x8 | x8 :: x8 | x8 | x8 | x8 | x8 | x8 | x8 | x8 :|[M:4/4] x8 | x8 | x8 | x8 :: x8 | %17
 x8 | x8 | x8 | x8 | x8 | x8 | x8 :|[M:4/4] x8 | x8 | x8 | x8 :: x8 | x8 | x8 | x8 | x8 | x8 | x8 | %35
 x8 :|[M:4/4] x8 | x8 | x8 |1 x8 :|2 x8 |: x8 | x8 | x8 | x4 | x4 | x8 | x8 | x8 |1 x8 :|2 x8 |] %51
[M:4/4] x8 | x8 | x8 | x8 :: x8 | x8 | x8 | x8 | x8 | x8 | x8 | x8 :|[M:4/4] x8 | x8 | x8 |1 x8 :|2 %67
 x8 |: x8 | x8 | x8 | x8 | x4 | x4 | x8 | x8 | x8 :|[M:4/4] x8 | x8 | x8 | x8 :: x8 | x8 | x8 | %84
 x8 | x8 | x8 | x8 | x8 :|[M:12/8] x12 | x12 | x12 | x12 :: x12 | x12 | x12 | x12 | x12 | x12 | %99
 x12 | x12 :|[M:4/4] x8 | x8 | x8 |1 x8 :|2 x8 |: x8 | x8 | x4 | x4 | x8 | x8 | x8 | x8 |1 x8 :|2 %115
 x8 |][M:4/4] x8 | x8 | x8 | x8 :: x8 | x8 | x[K:treble] x7 | x6[K:bass] x2 | x2[K:treble] x6 | %125
 x2[K:bass] x6 | x8 |1 x7 E, :|2 x8 | x E, |][M:4/4] x8 | x8 | x8 | x8 :: x8 | x8 | x8 | x8 | x8 | %139
 x8 | x8 | x8 :| %142
V:8
 MA^G{G}MAB PG2{^F} E2 | A2{A} B2{d} cB/A/ A2 | M^f2 a2{fe} P^dB{d}eE | P^F3 E ME4 :: %4
 cBc=d PBA/G/ G2 | e^de^f Pd^c/B/ B2 | P=d^cde{d} ^c2 d=F | E3 D MD4 | M=fg{g}ad P^c=B{B} A2 | %9
 M=cd{d}eA ^G^F E2 | =f2 PdB{A} P^GE{G} A2- | A3/2B/4c/4 P^G>A A4 :| %12
[M:4/4] MAc/e/ PcA/c/ P^GB/e/ PGE/G/ | MA2 PB2 Mce/c/ Ac'/a/ | P^f2 a2 P^df/B/ eE/G/ | %15
 cA/^F/ P^D>E ME4 :: Mce/=g/ Pec/e/ B=d/g/ MG2 | Meg/b/ Pge/g/ ^d^f/b/"^(    )" MB2 | %18
 P=d=f/e/ df/e/ df/e/ df/_e/ | Pd/^c/d/F/ P=E>D MD4 | z f/g/ aPf/d/ P^cd/e/ A2 | %21
 z =c/d/{d} ePc/A/ P^GA/B/ E2 |{e} Mfd/f/ PBd/B/ P^GB/E/ AC/A,/ | B,/B/Mc/d/ P^G>A MA4 :| %24
[M:4/4] A(3(c/d/e/) (3(c/d/e/) (3(c/d/e/) ^G(3(B/c/d/) (3(B/c/d/) (3(B/c/d/) | %25
 c(3(B/c/d/) c>B (3(c/d/e/) (3(c/d/e/) A2 | %26
 ^f(3(a/=g/g/) (3(a/g/f/) (3(a/g/f/) ^d(3(f/e/d/) e(3(G/^F/E/) | %27
 ^F(3(A/G/F/)"^(    )" TG3/2F/4E/4 E(3(^G/^F/E/) E2 :: %28
 c(3(e/=f/=g/) (3(e/f/g/) (3(e/f/g/) B(3(g/a/b/) (3(g/a/b/) (3(g/a/b/) | %29
 B(3(G/^F/E/) (3(G/F/E/) (3(G/F/E/) ^D(3(^F/G/A/) (3(D/E/F/)B, | %30
 (=d/=F/)(F/d/) (d/F/)(F/d/) (d/F/)(F/d/) (d/F/)(F/d/) | %31
 (d/F/)(F/E/)"^(    )" TE>D D(3(F/G/A/) D2 | (a/f/)(f/a/) (a/d/)(d/a/) (a/^c/)(c/e/) A2 | %33
 (e/=c/)(c/e/) (e/A/)(A/e/) (e/^G/)(G/B/) E2 | %34
 (3(f/e/d/) (3(f/e/d/) (3(d/c/B/) (3(d/c/B/) (3(B/A/^G/) (3(G/^F/E/) A(3(c/B/A/) | %35
 (A/^G/)(A/C/)"^(    )" TB,>A, A,(3(^C/B,/A,/) A,2 :|[M:4/4] cdeA ^G/A/G/A/ B/E/^F/^G/ | %37
 A/B/^G/A/ B/c/A/B/ (3(c/d/c/) (3(B/c/B/) A2 | ^f/=g/a/g/ f/e/f/e/ ^d/e/^c/d/ e/=d/=c/B/ |1 %39
 A/G/^F/G/"^(    )" TF>E E2 z/ ^G/A/B/ :|2 A/G/^F/G/"^(    )" TF>E E4 |: e=fgc B/A/B/A/ G/d/e/^f/ | %42
 gabe ^d/^c/d/c/ B z | %43
 (3(=d/^c/d/) (3(d/c/d/) (3(d/c/d/) (3(d/c/d/) (3(d/c/d/) (3(d/c/d/) (3(d/c/d/) (3(d/c/d/) | %44
 d/^c/d/e/ Tc>d | d2 z/ ^c/d/e/ | =fgad ^c/B/c/B/ ATB | =cdeA ^G/^F/G/F/ E z | %48
 (=f/e/)(d/c/) (d/c/)(B/A/) (^G/^F/)(E/D/) CA- |1 A/^G/A/B/"^(    )" TG>A A2 z/ B/c/d/ :|2 %50
 (A/^G/)A/B/"^(    )" TG>A A4 |][M:4/4] z/ MA^G/ A/B/c/d/ B/e^d/ e/=f/e/=d/ | %52
 c/a/c/a/ B/a/^g/d/ c/e/^G/B/ A2 | z/ Me^d/ e/A/B/c/ B/ba/- a/^f/b/a/ | %54
 =g/B/e/g/ ^f/e/^d/A/ ^G/B/G/^D/ E2 :: z2 z/ g^f/ g2 z2 | g/Me^d/ e2- e/e/^d/^c/ d/^f/^g/=a/ | %57
 b/=d/d/b/ a/=c/c/a/ =g/_B/B/g/ =f/A/A/f/ | e/G/G/e/ F/d/E/^c/ d/A/F/D/[I:staff +1] A,/F,/D,/A,,/ | %59
[I:staff -1] z2 z/ a^g/ a2 z2 | c/A^G/ A2- A/A/^G/^F/ B2 | =d4- d/B/c/d/ e2- | %62
 e/=f/d/e/ c/d/B/d/- d/e/c- c2 :|[M:4/4] A/B/c/d/ e/^f/^g/a/"^(    )" Pg>^f e/=f/e/d/ | %64
 c/e/f/e/ d/c/B/d/"^(    )" Pc>B A2 | ^f/=g/a/g/ f/g/a/g/ f/g/a/^d/ e/f/g/B/ |1 %66
 c/e/^f/e/ ^d2 e4 :|2 c/e/^f/e/ ^d2 e4 |: c/=d/e/=f/ =g/a/b/c'/"^(    )" Pb>a g/a/g/^f/ | %69
 e/c/B/A/ G/^F/E/F/"^(    )" P^D>^C B, z | =d/^c/d/=D/ d/c/d/D/ d/c/d/D/ d/c/d/D/ | %71
 z/ _B/A/G/ =F/E/D/E/ F/D/F/A/ d2 | f/g/a/g/ f/e/d/e/ | ^c/d/c/=B/ A z | %74
 =c/d/e/d/ c/B/A/B/ ^G/A/G/^F/ E z | (=f/d/)(d/B/) (B/^G/)(G/E/) (E/B,/)(B,/^G,/) A,/A/^G/A/ | %76
 C/A/^G/A/ E/^G/^F/G/ MA4 :|[M:4/4] A>^GAB ^G>ABE |"^(    )" Mef/e/"^(    )" Mdc/B/ cB/c/ A2 | %79
 ^f>=gaf ^d>efB |"^(    )" Me^d/e/"^(    )" MBA/B/ ^G^F/G/ E2 :: %81
"^(    )" M=c>B"^(    )"Mc>=d"^(    )" PB3/2c/4d/4 =G2 | %82
"^(    )" Me>^d"^(    )"Me>^f"^(    )" P^d3/2e/4f/4 B2 | =d/e/=f/^c/ d/e/f/c/ d/e/f/c/ d/e/f/c/ | %84
 d/=c/_B/A/ G/F/E/F/ D4 |"^(    )" Mf>g a-a/4f/4e/4d/4"^(    )" P^c3/2d/4e/4 A2 | %86
"^(    )" M=c>d e-e/4c/4B/4A/4"^(    )" P^G3/2A/4B/4 E2 |"^(    )" M=f>e d/c/d/c/ B>A ^G/^F/G/E/ | %88
"^(    )" MA>BP^G>A"^(    )" MA4 :|[M:12/8] Me2 d PcBA ^GAB E3 | ABc dcB cBc A3 | %91
 ^fc'b ab=g ^dag ^fge | bag P^fe^d e6 :: =g2 =f e=dc Bcd G3 | b2 a g^fe ^def B3 | %95
 (=d=Fd) (dFd) (dFd) (dFd) | (dFd) Ed^c dAF D3 | z ag fed ^cde A3 | z ed =cBA ^GAB E3 | %99
 =fed ^fba =g^fe ^gc'b | a^ga cdB A^ce"^(     )" !fermata!a3 :| %101
[M:4/4] z/ c/e/c/ A z z/ B/e/B/ E z | z/ A/c/e/ d/c/B/d/ c/e/a/e/ A z | %103
 z/ a/c'/a/ ^f/a/f/a/ M[!courtesy!x^d]>d Td>d |1 e/^f/=g/e/ f/e/^d/f/ e/^g/b/g/ e2 :|2 %105
 e/^f/=g/e/ f/e/^d/f/ e/^g/b/g/ e2 |: z/ e/=g/e/ c z z/ B/=d/B/ G z | %107
 z/ g/b/g/ e z z/ ^d/^f/d/ B z | =d/=f/d/=F/ d/f/d/F/ | d/f/d/F/ d/f/d/F/ | %110
 z/ A/d/e/"^(    )" P^c>c d/f/a/f/ d z | z/ f/a/f/ d/f/A/d/ ^c/e/a/e/ A z | %112
 z/ =c/e/c/ A/c/E/A/ ^G/B/e/B/ E z | %113
 f/a/4f/4d/f/4d/4 B/d/4B/4^G/B/4G/4 A/e/4c/4A/c/4A/4 E/A/4E/4C/E/4C/4 |1 %114
 A,>A ^G/B/e/B/ ^c/e/a/e/ A z :|2 A,>A ^G/B/e/B/ ^c/e/a/e/ A"^(      )" !fermata!z |] %116
[M:4/4] e/B/c/e/ ^G/B/A/c/ B/^F/^G/B/ ^D/F/E/G/ | A/E/A/c/ B/E/B/=d/ c/=f/e/B/ c/e/A | %118
 c'/b/a/=g/ ^f/b/a/g/ f/e/^d/g/ f/e/d/^c/ | B/e/^d/^c/ B/A/^G/^F/ G/^c/B/A/ ^G/^F/E :: %120
 =C/=D/E/=F/ =G/A,/B,/C/ D/^F/G/A/ B/B,/^C/^D/ | E/^F/G/A/ B/^C/^D/E/ ^F/G/F/E/ ^D/^C/B, | %122
 =f/e/=d/^c/ d/e/f/e/ d/^c/d/e/ f/e/d/c/ | d/e/f/g/ a/A/B/^c/ d/F/G/A/ D z | %124
 z/ _b/a/b/ a/g/f/g/ f/e/d/e/ ^c/d/c/=B/ | A/f/e/f/ e/d/=c/d/ c/B/A/B/ ^G/^F/E | %126
 d/e/=f/e/ d/e/c/d/ B/c/d/c/ B/c/A/B/ |1 ^G/e/A/c/ B/^F/^G/d/ ^c/B/c/^G/ A/ z/ z :|2 %128
 ^G/e/A/c/ B/^F/^G/d/ ^c/e/=f/d/ e/B/c/^G/ | A/ z/ z |][M:4/4]"^(    )" MAB"^(    )"Mcd e4- | %131
 efed cB A2 | ^f=gaf ^defB |"^(    )" Me^f f2 e4 ::"^(    )" Mc=de=f =g2 B2 | e^fga b2 ^d2 | %136
 =d^cde ^cA d2- | d/^c/d/e/ e>d d4 | fgad"^(    )" P^c>=B A2 | =cdeA"^(    )" P^G>^F E2 | %140
"^(    )" M_BcdB ^GE A2- | A/=B/c/4B/4A/ P^G>A A4 :| %142
V:9
 E2 E2 E2 B,2 | E2 D2 C2 E2 | A4 ^F2 E2- | E2 ^D2 E2 B,2 :: E=DE=F D4 | G^FGA F4 | E4 E2 D2- | %7
 D2 P^C2 D2 A,2 | D2 E2 A2 E2 | E3 D E2 B,2 | D4 E2 z C | B,C D2- DP^C/B,/{B,} C2 :|[M:4/4] x8 | %13
 x8 | x8 | x8 :: x8 | x8 | x8 | x8 | x8 | x8 | x8 | x8 :|[M:4/4] x8 | x8 | x8 | x8 :: x8 | x8 | %30
 x8 | x8 | x8 | x8 | x8 | x8 :|[M:4/4] x8 | x8 | x8 |1 x8 :|2 x8 |: x8 | x8 | x8 | x4 | x4 | x8 | %47
 x8 | x8 |1 x8 :|2 x8 |][M:4/4] x8 | x8 | x8 | x8 :: z/ McB/ c2- c/c/B/A/ B/=d/e/^f/ | %56
 z2 z/ B^A/ B2 z2 | x8 | x8 | z/ Md^c/ d2- d/d/=c/B/ e/B/c/d/ | z2 z/ E^D/ E2 z/ E/^F/^G/ | %61
 z/ A/B/c/ B/d/^F/A/ ^G2- G/G/A/B/ | cBAB- B>^G A2 :|[M:4/4] x8 | x8 | x8 |1 %66
 x2 z/ A/B/A/ ^G/B/A/B/ E2 :|2 x2 z/ A/B/A/ ^G/B/A/B/ E2 |: x8 | x8 | x8 | x8 | x4 | x4 | x8 | x8 | %76
 x8 :|[M:4/4] x8 | x8 | x8 | x8 :: x8 | x8 | x8 | x8 | x8 | x8 | x8 | %88
 x4 z/ E/=F/D/ E/B,/"^(      )"!fermata!^C :|[M:12/8] x12 | x12 | x12 | x12 :: x12 | x12 | x12 | %96
 x12 | x12 | x12 | x12 | x12 :|[M:4/4] x8 | x8 | x8 |1 x8 :|2 x8 |: x8 | x8 | x4 | x4 | x8 | x8 | %112
 x8 | x8 |1 x8 :|2 x8 |][M:4/4] x8 | x8 | x8 | x8 :: x8 | x8 | x8 | x8 | x8 | x8 | x8 |1 x8 :|2 %128
 x8 | x2 |][M:4/4] E2 A2- AA ^G2 | A3 ^G A2 E2 | A3 c B4- | BcBA- AA ^G2 :: =G4- G4 | B4- B4 | %136
 _B4 A2 =B2 | A3 G- GG ^F2 | A3 G E4 | E3 D B,4 | =F4 E2 ^F2 | E4 E4 :| %142
V:10
 CB,CD B,2 ^G,2 | A,2 E,2 A,2 !arpeggio!C2 | ^D2 E2 B,4 | B,2 ^F,^G,/A,/- A,PG,/F,/ G,2 :: %4
 =G,4- G,A, B,2 | B,4 B,^C ^D2 | B,4 A,4 | _B,A,/G,/ A,E,/G,/- G,^F,/E,/ F,2 | A,3 D ED ^C2 | %9
 A,2 =B,D B,A, ^G,2 | B,6 ^F,2 | B,4 A,4 :|[M:4/4] A,2 A,,2 E,2 E,,2 | A,C/E/ ^G,E,/G,/ A,2 A,,A, | %14
 CA,/C/ ^F,A,/F,/ B,A,=G,C | A,^F,B,B,, E,^G,/B,/ PG,E, :: C,2 C,,2 =G,,2 G,B,/G,/ | %17
 E,2 E,,2 B,,2 B,^D/B,/ | ^G,2 A,2 _B,2 =F,2 | =G,^G,A,A,, D,F,/D,/ D,,2 | D,E,F,G, A,2 z E, | %21
 A,B,CD E2 E,F,/E,/ | D,2 z2 D,2 z ^F, | E,=D,E,E,, A,,^C,/E,/ C,/A,,/A,,, :| %24
[M:4/4] A,,B,,C,D, E,^F,^G,E, | A,D,E,E,, A,^G,A,B, | CB,A,^F, B,3 B, | A,^F,B,B,, E,B,, E,,2 :: %28
 C,D,E,C, G,D,G,,^F, | E,^F,G,E, B,^F,B,,A, | ^G, z A, z _B, z A, z | ^G, z A,A,, D,^C,D,E, | %32
 F,E,F,G, A,^G,A,B, | =CB,CD E^DEE, | =D, z D, z D, z ^D, z | E,=D,E,E,, A,,E,, A,,,2 :| %36
[M:4/4] A,/^G,/A,/B,/ C/B,/C/D/ EB,E,D | CB,/A,/ ^G,E, A,E, A,,A,/B,/ | CB,CA, B,A,=G,E, |1 %39
 CA,B,B,, E,/^D,/E,/^F,/ G,/E,/F,/G,/ :|2 CA,B,B,, E,/^D,/^C,/D,/ E,E,, |: %41
 =C,/B,,/C,/=D,/ E,/D,/E,/=F,/ G,D,G,,^F, | E,/^D,/E,/^F,/ G,/F,/G,/A,/ B,F, B,,(3(A,/B,/A,/) | %43
 ^G,^G,,A,A,, _B,_B,,=F,=F,, | =G,^G,A,A,, | D,/^C,/D,/E,/ F,E, | %46
 D,/^C,/D,/E,/ F,/E,/F,/G,/ A,E, A,,/E,/^F,/^G,/ | A,/^G,/A,/B,/ =C/B,/C/D/ EB, E,(3(E,/=F,/E,/) | %48
 D, z D, z D, z ^D,/E,/^C,/D,/ |1 E,^D,E,E,, A,,/E,/^F,/^G,/ A,/G,/A,/B,/ :|2 %50
 E,^D,E,E,, A,,/E,/^C,/^G,,/ A,,/E,,/A,,, |][M:4/4] A,B,CA,- A,/^G,/^F, G,E, | %52
 A,=F,D,E, A,,2- A,,/^G,/A,/B,/ | CB,CA, ^D,^C^DB, | E=CA,B, E,B,, E,,2 :: %55
 C,=D, E,A,,/D,/ G,,D,G,^F, | E,^F, G,^C,/F,/ B,,F,B,=A, | %57
 ^G,/E/E/G,/ A,/=F/F/A,/ _B,/G/G/B,/ =F,/D/D/F,/ | G,/_B,/E/G,/ A,A,, D,2 x2 | z2 z E,- E,2 z2 | %60
 z2 z B,- B,2 z2 | z4 z2 z ^G, | A,3 ^G, A, z z A, :|[M:4/4] A,,A,G,F, E,^F,^G,E, | %64
 A,C,D,E, A,, z/ E,/ A,/B,/C/B,/ | A,A,,B,B,, CC,=G,=G,, |1 A,A,,B,B,, E,E,,- E,,/E,/=D,/E,/ :|2 %67
 A,A,,B,B,, E,2- E,/B,,/E,, |: C,D,E,C, G,^F,G,G,, | E,^F,G,A, B,^C, ^D,/C,/B,,/D,/ | %70
 ^G,,z/E,/ A,,z/=F,/ _B,,z/=G,/ =F,,z/D,/ | G,,G,A,A,, D,E, F,/G,/F,/E,/ | D,E,F,G, | %73
 A,E, A,,/=B,/A,/^G,/ | A,B,=CD EB, E,/=G,/=F,/E,/ | D,E,=F,D, D,E,F,^D, | %76
 E,^D,E,E,, z/ A,,/^C,/E,/- A,2 :|[M:4/4] A,B,CD E,^F,^G,A, | z A,2 ^G, A,E, A,B, | %79
 CB,CA, B,^C^DE | =G,A,B,B,, E,B,, E,,2 :: =C,=D,E,=F, =G,A,B,G, | E,^F,G,A, B,^C^DB, | %83
 ^G,/E/G,/E/ A,/F/A,/F/ _B,/=G/B,/G/ =F,/D/F,/D/ | z _B,D^C D/=C/_B,/A,/ G,/F,/E,/F,/ | %85
 D,E,F,G, A,=B,^CA, | A,,B,,=C,D, E,^F,^G,E, | D,D,, z2 D,D,, z2 | %88
 C,D,E,E,, z2 z"_(      )" !fermata!A, :|[M:12/8] A,,2 B,, C,2 D, E,2 ^F, ^G,F,E, | %90
 z E,A, z A,^G, A,2 B, CDB, | A,2 =G, ^F,2 E, F,2 E, ^D,2 E, | G,,2 A,, B,,3 E,^G,B, PG,2 E, :: %93
 C,2 D, E,2 =F, =G,2 A, PB,A,G, | E,2 ^F, G,2 A, B,2 ^C ^DCB, | ^G, z z A, z z _B, z z A, z z | %96
 ^G, z z A,2 A,, D,3- D,F,A, | D2 E F2 =G, A,2 =B, ^CB,A, | %98
 A,,2 B,, =C,2 D,, E,,2 ^F,, ^G,,F,,E,, | D,,2 z D,2 z E,,2 z E,2 z | %100
 =F,2 ^D, E,2 E,,"_(     )" z2 z z E,"^(     )"!fermata!A, :| %101
[M:4/4] A, z z/ A,/C/A,/ ^G, z z/ E,/G,/E,/ | A,E,^F,^G, A, z z/ A,/C/A,/ | %103
 ^F, z z/ F,/A,/F,/ B,/^D/^F/D/ B,/D/^F,/A,/ |1 =G,>=C A,/^F,/B, E, z z/ E,/^G,/E,/ :|2 %105
 =G,>=C A,/^F,/B, E, z z/ =F,/E,/=D,/ |: C, z z/ C/E/C/ G z z/ G,/B,/G,/ | %107
 E, z z/ E,,/G,,/E,,/ B,, z z/ B,/^D/B,/ | ^G,z/^G,,/ A,,z/A,/ | _B,z/_B,,/ A,,z/A,/ | %110
 DF,/G,/ A,/E,/A,/A,,/ D, z z/ F,/A,/F,/ | D, z F,D, A, z z/ E,/A,/E,/ | %112
 A,, z =C,A,, E, z z/ E,/F,/E,/ | D, z z D, C, z z A,, |1 %114
 F,/E,/D,/F,/ E,E,, [A,,A,]2 z/ ^G,,/A,,/B,,/ :|2 %115
 F,/E,/D,/F,/ E,E,, [A,,A,]2 A,/E,/"^(      )"!fermata!A,, |] %116
[M:4/4] A,/^G,/A,/C/ B,/D/C/E/ ^G,/B,/E,/G,/ ^F,/A,/G,/B,/ | %117
 C,/A,/E,/A,,/ ^G,/^F,/G,/E,/ A,/B,/C/D/ E/D/C/B,/ | %118
 A,C/B,/ A,/=G,/^F,/B,/ A,/G,/F,/E,/ ^D,/G,/F,/E,/ | %119
 ^D,/^C,/B,,/A,,/ ^G,,/A,,/B,, E,/A,,/^G,,/^F,,/ E,,/B,,/E, :: %120
 =C,,=C,/=D,/ E,/=F,/=G,/A,,/ B,,/D,/E,/^F,/ G,/A,/G,/F,/ | %121
 E,E,/^F,/ G,/A,/B,/^C,/ ^D,/E,/D,/^C,/ B,,B,/A,/ | %122
 ^G,[K:treble] =F/E/ =D/^C/D/E/ F/E/D/^C/ D/E/F/E/ | D/^C/D/E/ F/G/F/E/ D z[K:bass] z/ F,/G,/A,/ | %124
 D, z[K:treble] z/ _B/A/B/ A/G/F/G/ E/F/E/D/ | %125
 ^C/=B,/A,[K:bass] z/ F/E/F/ E/D/=C/D/ B,/A,/^G,/A,/ | B, z z[I:staff -1] C D/E/=F/E/ D/E/C/D/ |1 %127
 B,/^G/C/A/ D/A/E/G/ A/[I:staff +1]^G,/A,/E,/ A,,/^C,/E,/A,/ :|2 %128
[I:staff -1] B,/^G/C/A/ D/A/E/G/ A/^C/D/B,/ C/[I:staff +1]^G,/A,/E,/ | %129
 A,,/^C,/E,/"^(      )"!fermata!A,/ |][M:4/4] C2 A,2 B,4 | CDCB, A,B,CB, | A,4 ^F,2 ^D2 | %133
 E2 ^D2 E2 B,2 :: E4- E2 D2 | G4- G2 ^F2 | G2 =F2 E2 FE | FD ^C2 D2 A,2 | D2 =C_B, A,=B, ^C2 | %139
 A,2 G,=F, E,^F, ^G,2 | =F,2 _B,2 =B,2 CB, | CA, B,^C/D/ C4 :| %142
V:11
 A,2 A,,2 E,3 D, | C,2 ^G,,2 A,,2 A,B, | C3 B,/A,/ B,A,=G,A, | B,2 B,,2 E,2 E,,2 :: %4
 C,2 C,,2 G,3 ^F, | E,2 E,,2 B,3 A, | ^G,2 E,2 A,=G,=F,D, | G,,_B,, A,,2 D,2 D,,2 | %8
 D,2 =C,_B,, A,,4 | A,2 G,F, E,4 | D,6 ^D,2 | E,2 E,,2 A,,4 :|[M:4/4] x8 | x8 | x8 | x8 :: x8 | %17
 x8 | x8 | x8 | x6 A,,2 | x8 | x6 ^D,2 | x8 :|[M:4/4] x8 | x8 | x2 CA, B,A,=G,^F, | x8 :: x8 | x8 | %30
 x8 | x8 | x8 | x8 | x8 | x8 :|[M:4/4] x8 | x8 | x8 |1 x8 :|2 x8 |: x8 | x8 | x8 | x4 | x4 | x8 | %47
 x8 | x8 |1 x8 :|2 x8 |][M:4/4] x8 | x8 | x8 | x8 :: x8 | x8 | x8 | x8 | %59
 D,,E,,F,,E,, A,,=B,,=C,E, | A,,B,,C,B,, E,^F,^G,E, | =F,E,D,B,, E,D,C,B,, | A,,D, E,2 A,E, A,,2 :| %63
[M:4/4] x8 | x8 | x8 |1 x8 :|2 x8 |: x8 | x8 | x8 | x8 | x4 | x4 | x8 | x8 | x5 ^C,- [C,E,]2 :| %77
[M:4/4] x8 | C,2 B,,2 A,,2 x2 | x8 | x8 :: x8 | x8 | x8 | =G,3 A, x4 | x8 | x8 | x8 | x4 A,,4 :| %89
[M:12/8] x12 | C,3 B,,3 A,,3 x3 | x12 | x12 :: x12 | x12 | x12 | x12 | x12 | x12 | x12 | %100
 x6 !fermata!A,,6 :|[M:4/4] x8 | x8 | x8 |1 x8 :|2 x8 |: x8 | x8 | x4 | x4 | x8 | x8 | x8 | x8 |1 %114
 x8 :|2 x8 |][M:4/4] x8 | x8 | x8 | x6 E,,2 :: x8 | x8 | x[K:treble] x7 | x6[K:bass] x2 | %124
 x2[K:treble] x6 | x2[K:bass] x6 | D, x7 |1 x6 A,,2 :|2 x8 | A,,2 |][M:4/4] A,2 F,2 E,3 D, | %131
 C,2 E,2 A,,4 | C,B,,C,A,, B,,2 A,2 | G,A, B,2 E,2 E,,2 :: C2 C,D, E,=F, G,2 | E2 E,^F, G,A, B,2 | %136
 G,4- G,2 ^G,2 | A,4 D,2 D,,2 | D,E,^F,G, A,2 A,,2 | A,,B,,^C,D, E,2 E,,2 | D,4- D,2 ^D,2 | %141
 E,2 E,,2 A,,4 :| %142
V:12
 x8 | x4 E,2 x2 | x8 | x8 :: x8 | x8 | x8 | x8 | x8 | x8 | x8 | x8 :|[M:4/4] x8 | x8 | x8 | x8 :: %16
 x8 | x8 | x8 | x8 | x8 | x8 | x8 | x8 :|[M:4/4] x8 | x8 | x8 | x8 :: x8 | x8 | x8 | x8 | x8 | x8 | %34
 x8 | x8 :|[M:4/4] x8 | x8 | x8 |1 x8 :|2 x8 |: x8 | x8 | x8 | x4 | x4 | x8 | x8 | x8 |1 x8 :|2 %50
 x8 |][M:4/4] x8 | x8 | x8 | x8 :: x8 | x8 | x8 | x8 | x8 | x8 | x8 | x8 :|[M:4/4] x8 | x8 | x8 |1 %66
 x8 :|2 x8 |: x8 | x8 | x8 | x8 | x4 | x4 | x8 | x8 | x9/2 A,,3/2- A,,2 :|[M:4/4] x8 | x8 | x8 | %80
 x8 :: x8 | x8 | x8 | x8 | x8 | x8 | x8 | x4 z2 E,2 :|[M:12/8] x12 | x12 | x12 | x12 :: x12 | x12 | %95
 x12 | x12 | x12 | x12 | x12 | x12 :|[M:4/4] x8 | x8 | x8 |1 x8 :|2 x8 |: x8 | x8 | x4 | x4 | x8 | %111
 x8 | x8 | x8 |1 x8 :|2 x8 |][M:4/4] x8 | x8 | x8 | x8 :: x8 | x8 | x[K:treble] x7 | %123
 x6[K:bass] x2 | x2[K:treble] x6 | x2[K:bass] x6 | x8 |1 x13/2 ^C,3/2 :|2 x8 | x/ ^C,3/2 |] %130
[M:4/4] x8 | x8 | x8 | x8 :: x8 | x8 | x8 | x8 | x8 | x8 | x8 | x8 :| %142
V:13
 x8 | x8 | x8 | x8 :: x8 | x8 | x2 ^G2 A2 x2 | x8 | A3 G x4 | x8 | x8 | x8 :|[M:4/4] x8 | x8 | x8 | %15
 x8 :: x8 | x8 | x8 | x8 | x8 | x8 | x8 | x8 :|[M:4/4] x8 | x8 | x8 | x8 :: x8 | x8 | x8 | x8 | %32
 x8 | x8 | x8 | x8 :|[M:4/4] x8 | x8 | x8 |1 x8 :|2 x8 |: x8 | x8 | x8 | x4 | x4 | x8 | x8 | x8 |1 %49
 x8 :|2 x8 |][M:4/4] x8 | x8 | x8 | x8 :: x8 | x8 | x8 | x8 | x2 z =B A2 x2 | x2 z ^F E2 x2 | x8 | %62
 x6 z/ E3/2 :|[M:4/4] x8 | x8 | x8 |1 x8 :|2 x8 |: x8 | x8 | x8 | x8 | x4 | x4 | x8 | x8 | x8 :| %77
[M:4/4] x8 | x8 | x8 | x8 :: x8 | x8 | x8 | x8 | x8 | x8 | x8 | x8 :|[M:12/8] x12 | x12 | x12 | %92
 x12 :: x12 | x12 | x12 | x12 | x12 | x12 | x12 | x12 :|[M:4/4] x8 | x8 | x8 |1 x8 :|2 x8 |: x8 | %107
 x8 | x4 | x4 | x8 | x8 | x8 | x8 |1 x8 :|2 x8 |][M:4/4] x8 | x8 | x8 | x8 :: x8 | x8 | x8 | x8 | %124
 x8 | x8 | x8 |1 x8 :|2 x8 | x2 |][M:4/4] x8 | x8 | x8 | x8 :: x8 | x8 | x8 | x8 | x8 | x8 | x8 | %141
 x8 :| %142
V:14
 x8 | x8 | x8 | x8 :: x8 | x8 | x8 | x8 | x8 | x8 | x8 | x8 :|[M:4/4] x8 | x8 | x8 | x8 :: x8 | %17
 x8 | x8 | x8 | x8 | x8 | x8 | x8 :|[M:4/4] x8 | x8 | x8 | x8 :: x8 | x8 | x8 | x8 | x8 | x8 | x8 | %35
 x8 :|[M:4/4] x8 | x8 | x8 |1 x8 :|2 x8 |: x8 | x8 | x8 | x4 | x4 | x8 | x8 | x8 |1 x8 :|2 x8 |] %51
[M:4/4] x8 | x8 | x8 | x8 :: x8 | x8 | x8 | x8 | x8 | x8 | x8 | x8 :|[M:4/4] x8 | x8 | x8 |1 x8 :|2 %67
 x8 |: x8 | x8 | x8 | x8 | x4 | x4 | x8 | x8 | x8 :|[M:4/4] x8 | x8 | x8 | x8 :: x8 | x8 | x8 | %84
 x8 | x8 | x8 | x8 | x8 :|[M:12/8] x12 | x12 | x12 | x12 :: x12 | x12 | x12 | x12 | x12 | x12 | %99
 x12 | x12 :|[M:4/4] x8 | x8 | x8 |1 x8 :|2 x8 |: x8 | x8 | x4 | x4 | x8 | x8 | x8 | x8 |1 x8 :|2 %115
 x8 |][M:4/4] x8 | x8 | x8 | x8 :: x8 | x8 | x[K:treble] x7 | x6[K:bass] x2 | x2[K:treble] x6 | %125
 x2[K:bass] x6 | x8 |1 x7 E, :|2 x8 | x E, |][M:4/4] x8 | x8 | x8 | x8 :: x8 | x8 | x8 | x8 | x8 | %139
 x8 | x8 | x8 :| %142

